packages/sources/icons/src/vitamix/youtube-line.svg

<svg width="16" height="16" viewBox="0 0 16 16" xmlns="http://www.w3.org/2000/svg"><path fill-rule="evenodd" clip-rule="evenodd" d="M14.362 4.33199C14.6667 5.51999 14.6667 7.99999 14.6667 7.99999C14.6667 7.99999 14.6667 10.48 14.362 11.668C14.1927 12.3247 13.6974 12.8413 13.07 13.016C11.9307 13.3333 8.00004 13.3333 8.00004 13.3333C8.00004 13.3333 4.07137 13.3333 2.93004 13.016C2.30004 12.8387 1.80537 12.3227 1.63804 11.668C1.33337 10.48 1.33337 7.99999 1.33337 7.99999C1.33337 7.99999 1.33337 5.51999 1.63804 4.33199C1.80737 3.67532 2.30271 3.15866 2.93004 2.98399C4.07137 2.66666 8.00004 2.66666 8.00004 2.66666C8.00004 2.66666 11.9307 2.66666 13.07 2.98399C13.7 3.16132 14.1947 3.67732 14.362 4.33199ZM13.0707 4.66332C13.02 4.46466 12.876 4.31466 12.7114 4.26866C12.42 4.18666 11 3.99999 8.00004 3.99999C5.00004 3.99999 3.58137 4.18666 3.28737 4.26866C3.12471 4.31399 2.98071 4.46399 2.92937 4.66332C2.85671 4.94599 2.66671 6.13066 2.66671 7.99999C2.66671 9.86932 2.85671 11.0533 2.92937 11.3373C2.98004 11.5353 3.12404 11.6853 3.28804 11.7307C3.58137 11.8133 5.00004 12 8.00004 12C11 12 12.4194 11.8133 12.7127 11.7313C12.8754 11.686 13.0194 11.536 13.0707 11.3367C13.1434 11.054 13.3334 9.86666 13.3334 7.99999C13.3334 6.13332 13.1434 4.94666 13.0707 4.66332ZM6.66671 5.66666V10.3333L10.6667 7.99999L6.66671 5.66666Z"/></svg>

<svg width="16" height="16" xmlns="http://www.w3.org/2000/svg"><path fill-rule="evenodd" clip-rule="evenodd" d="M14.362 4.332C14.667 5.52 14.667 8 14.667 8s0 2.48-.305 3.668a1.874 1.874 0 0 1-1.292 1.348c-1.14.317-5.07.317-5.07.317s-3.929 0-5.07-.317a1.874 1.874 0 0 1-1.292-1.348C1.333 10.48 1.333 8 1.333 8s0-2.48.305-3.668A1.874 1.874 0 0 1 2.93 2.984C4.071 2.667 8 2.667 8 2.667s3.93 0 5.07.317c.63.177 1.125.693 1.292 1.348Zm-1.291.331a.542.542 0 0 0-.36-.394C12.42 4.187 11 4 8 4s-4.419.187-4.713.269a.543.543 0 0 0-.358.394c-.072.283-.262 1.468-.262 3.337 0 1.87.19 3.053.262 3.337a.54.54 0 0 0 .359.394C3.581 11.813 5 12 8 12s4.42-.187 4.713-.269a.542.542 0 0 0 .358-.394c.072-.283.262-1.47.262-3.337 0-1.867-.19-3.053-.262-3.337ZM6.667 5.667v4.666l4-2.333-4-2.333Z"/></svg>
